src/icons/file-zip.svg

<svg width="16" height="16" viewBox="0 0 16 16" fill="none" xmlns="http://www.w3.org/2000/svg">
<path d="M7 12V13H6V12H7Z" fill="black"/>
<path d="M6 12H5V11H6V12Z" fill="black"/>
<path d="M7 11H6V10H7V11Z" fill="black"/>
<path d="M6 10H5V9H6V10Z" fill="black"/>
<path d="M7 9H6V8H7V9Z" fill="black"/>
<path d="M6 8H5V7H6V8Z" fill="black"/>
<path d="M7 7H6V6H7V7Z" fill="black"/>
<path fill-rule="evenodd" clip-rule="evenodd" d="M15 1.5V6.5L14.8496 6.84961L14 7.70996V14.5L13.5 15H2.5L2 14.5V1.5L2.5 1L14.5 1L15 1.5ZM3 14H5V13H6V14H11V7.67969L10.1504 6.83008L10 6.46973V2H7V4.5L6.5 5H6V6H5V5H4.5L4 4.5V2H3V14ZM11 6.26953L11.8496 7.12012L12 7.46973V14H13V7.5L13.1504 7.15039L14 6.29004V2H11V6.26953ZM5 4H6V2H5V4Z" fill="black"/>
</svg>

<svg width="16" height="16" viewBox="0 0 16 16" xmlns="http://www.w3.org/2000/svg" fill="currentColor"><path fill-rule="evenodd" clip-rule="evenodd" d="M2.5 1h11l.5.5v5l-.15.35-.85.86v6.79l-.5.5h-10l-.5-.5v-13l.5-.5zM6 2H5v2h1V2zm0 12h4V7.68l-.85-.85L9 6.47V2H7v2.5l-.5.5H6v1H5V5h-.5L4 4.5V2H3v12h2v-1h1v1zm0-2v1h1v-1H6zm0-1v1H5v-1h1zm0-1h1v1H6v-1zm0-1v1H5V9h1zm0-1h1v1H6V8zm0-1v1H5V7h1zm0 0h1V6H6v1zm6.15.15l.85-.86V2h-3v4.27l.85.85.15.35V14h1V7.5l.15-.35z"/></svg>
